P2
# office.pgm — V3 集成演示地图(P2 ASCII,可 diff)。
# 40x30 @ 0.05m/cell = 2.0x1.5m。两室一门 + 隔墙,演示 A* 绕行/穿门。
# 0=占据,255=free。start≈(0.15,0.15) goal≈(1.85,1.35) 演示跨房间规划。
40 30
255
  0   0   0   0   0   0   0   0   0   0   0   0   0   0   0   0   0   0   0   0   0   0   0   0   0   0   0   0   0   0   0   0   0   0   0   0   0   0   0   0
  0 255 255 255 255 255 255 255 255 255 255 255 255 255 255 255 255 255 255 255   0 255 255 255 255 255 255 255 255 255 255 255 255 255 255 255 255 255 255   0
  0 255 255 255 255 255 255 255 255 255 255 255 255 255 255 255 255 255 255 255   0 255 255 255 255 255 255 255 255 255 255 255 255 255 255 255 255 255 255   0
  0 255 255 255 255 255 255 255 255 255 255 255 255 255 255 255 255 255 255 255   0 255 255 255 255 255 255 255 255 255 255 255 255 255 255 255 255 255 255   0
  0 255 255 255 255 255 255 255 255 255 255 255 255 255 255 255 255 255 255 255   0 255 255 255 255 255 255 255 255 255 255 255 255 255 255 255 255 255 255   0
  0 255 255 255 255 255 255 255 255 255 255 255 255 255 255 255 255 255 255 255   0 255 255 255 255 255 255 255 255 255 255 255 255 255 255 255 255 255 255   0
  0 255 255 255 255 255 255 255 255 255 255 255 255 255 255 255 255 255 255 255   0 255 255 255 255 255 255 255 255 255 255 255 255 255 255 255 255 255 255   0
  0 255 255 255 255 255 255 255 255 255 255 255 255 255 255 255 255 255 255 255   0 255 255 255 255 255 255 255 255 255 255 255 255 255 255 255 255 255 255   0
  0 255 255 255 255 255 255 255 255 255 255 255 255 255 255 255 255 255 255 255   0 255 255 255 255 255 255 255 255 255   0 255 255 255 255 255 255 255 255   0
  0 255 255 255 255 255 255 255 255 255 255 255 255 255 255 255 255 255 255 255   0 255 255 255 255 255 255 255 255 255   0 255 255 255 255 255 255 255 255   0
  0   0   0   0   0   0   0   0   0   0   0   0   0 255 255 255 255 255 255 255   0 255 255 255 255 255 255 255 255 255   0 255 255 255 255 255 255 255 255   0
  0 255 255 255 255 255 255 255 255 255 255 255 255 255 255 255 255 255 255 255   0 255 255 255 255 255 255 255 255 255   0 255 255 255 255 255 255 255 255   0
  0 255 255 255 255 255 255 255 255 255 255 255 255 255 255 255 255 255 255 255   0 255 255 255 255 255 255 255 255 255   0 255 255 255 255 255 255 255 255   0
  0 255 255 255 255 255 255 255 255 255 255 255 255 255 255 255 255 255 255 255 255 255 255 255 255 255 255 255 255 255   0 255 255 255 255 255 255 255 255   0
  0 255 255 255 255 255 255 255 255 255 255 255 255 255 255 255 255 255 255 255 255 255 255 255 255 255 255 255 255 255   0 255 255 255 255 255 255 255 255   0
  0 255 255 255 255 255 255 255 255 255 255 255 255 255 255 255 255 255 255 255 255 255 255 255 255 255 255 255 255 255   0 255 255 255 255 255 255 255 255   0
  0 255 255 255 255 255 255 255 255 255 255 255 255 255 255 255 255 255 255 255 255 255 255 255 255 255 255 255 255 255   0 255 255 255 255 255 255 255 255   0
  0 255 255 255 255 255 255 255 255 255 255 255 255 255 255 255 255 255 255 255   0 255 255 255 255 255 255 255 255 255   0 255 255 255 255 255 255 255 255   0
  0 255 255 255 255 255 255 255 255 255 255 255 255 255 255 255 255 255 255 255   0 255 255 255 255 255 255 255 255 255   0 255 255 255 255 255 255 255 255   0
  0 255 255 255 255 255 255 255 255 255 255 255 255 255 255 255 255 255 255 255   0 255 255 255 255 255 255 255 255 255   0 255 255 255 255 255 255 255 255   0
  0 255 255 255 255 255 255 255 255 255 255 255 255 255 255 255 255 255 255 255   0 255 255 255 255 255 255 255 255 255   0 255 255 255 255 255 255 255 255   0
  0 255 255 255 255 255 255 255 255 255 255 255 255 255 255 255 255 255 255 255   0 255 255 255 255 255 255 255 255 255   0 255 255 255 255 255 255 255 255   0
  0 255 255 255 255 255 255 255 255 255 255 255 255 255 255 255 255 255 255 255   0 255 255 255 255 255 255 255 255 255   0 255 255 255 255 255 255 255 255   0
  0 255 255 255 255 255 255 255 255 255 255 255 255 255 255 255 255 255 255 255   0 255 255 255 255 255 255 255 255 255   0 255 255 255 255 255 255 255 255   0
  0 255 255 255 255 255 255 255 255 255 255 255 255 255 255 255 255 255 255 255   0 255 255 255 255 255 255 255 255 255   0 255 255 255 255 255 255 255 255   0
  0 255 255 255 255 255 255 255 255 255 255 255 255 255 255 255 255 255 255 255   0 255 255 255 255 255 255 255 255 255   0 255 255 255 255 255 255 255 255   0
  0 255 255 255 255 255 255 255 255 255 255 255 255 255 255 255 255 255 255 255   0 255 255 255 255 255 255 255 255 255   0 255 255 255 255 255 255 255 255   0
  0 255 255 255 255 255 255 255 255 255 255 255 255 255 255 255 255 255 255 255   0 255 255 255 255 255 255 255 255 255   0 255 255 255 255 255 255 255 255   0
  0 255 255 255 255 255 255 255 255 255 255 255 255 255 255 255 255 255 255 255   0 255 255 255 255 255 255 255 255 255   0 255 255 255 255 255 255 255 255   0
  0   0   0   0   0   0   0   0   0   0   0   0   0   0   0   0   0   0   0   0   0   0   0   0   0   0   0   0   0   0   0   0   0   0   0   0   0   0   0   0
